static/images/explorer1.svg

<svg height="86" viewBox="0 0 86 86" width="86" xmlns="http://www.w3.org/2000/svg" xmlns:xlink="http://www.w3.org/1999/xlink"><linearGradient id="a" x1="0%" x2="149.460671%" y1="0%" y2="71.875%"><stop offset="0" stop-color="#00eaf8"/><stop offset="1" stop-color="#6d42ef"/></linearGradient><g fill="none" fill-rule="evenodd"><circle cx="43" cy="43" fill="#fff" r="43"/><path d="m58.1537403 53.069114c1.1283356 1.1283356 1.1283356 2.9581199 0 4.0846502-1.1266055 1.1283356-2.9563146 1.1283356-4.0846502 0l-7.0690981-7.069098c1.6381177-1.0531133 3.0314618-2.4465326 4.0845751-4.0846503zm-6.1537403-14.0689968c0 6.6268966-5.3729081 11.9998828-11.9998047 11.9998828-6.6272872 0-12.0001953-5.3729862-12.0001953-11.9998828 0-6.6272091 5.3729081-12.0001172 12.0001953-12.0001172 6.6268966 0 11.9998047 5.3729081 11.9998047 12.0001172zm-11.9998047 8.9999512c4.9627505 0 8.9999512-4.0371226 8.9999512-8.9999512 0-4.963063-4.0372007-9.0002637-8.9999512-9.0002637-4.9631411 0-9.0003418 4.0372007-9.0003418 9.0002637 0 4.9628286 4.0372007 8.9999512 9.0003418 8.9999512zm-7.0002033-9.0000525c0-3.8594881 3.1404768-7 7-7v2.0000558c-2.7569697 0-4.9998884 2.2430219-4.9998884 4.9999442z" fill="url(#a)"/></g></svg>

<?xml version="1.0" encoding="UTF-8"?>
<svg width="86px" height="86px" viewBox="0 0 86 86" version="1.1" xmlns="http://www.w3.org/2000/svg" xmlns:xlink="http://www.w3.org/1999/xlink">
    <!-- Generator: Sketch 46.2 (44496) - http://www.bohemiancoding.com/sketch -->
    <title>ic/explorer1</title>
    <desc>Created with Sketch.</desc>
    <defs>
        <linearGradient x1="0%" y1="0%" x2="149.460671%" y2="71.875%" id="linearGradient-1">
            <stop stop-color="#00EAF8" offset="0%"></stop>
            <stop stop-color="#6D42EF" offset="100%"></stop>
        </linearGradient>
    </defs>
    <g id="Page-1" stroke="none" stroke-width="1" fill="none" fill-rule="evenodd">
        <g id="Temp-Screen" transform="translate(-105.000000, -2384.000000)">
            <g id="1" transform="translate(93.000000, 2384.000000)">
                <g id="ic/explorer1" transform="translate(12.000000, 0.000000)">
                    <circle id="Oval-4" fill="#FFFFFF" cx="43" cy="43" r="43"></circle>
                    <path d="M58.1537403,53.069114 C59.2820759,54.1974496 59.2820759,56.0272339 58.1537403,57.1537642 C57.0271348,58.2820998 55.1974257,58.2820998 54.0690901,57.1537642 L46.999992,50.0846662 C48.6381097,49.0315529 50.0314538,47.6381336 51.0845671,46.0000159 L58.1537403,53.069114 Z M52,39.0001172 C52,45.6270138 46.6270919,51 40.0001953,51 C33.3729081,51 28,45.6270138 28,39.0001172 C28,32.3729081 33.3729081,27 40.0001953,27 C46.6270919,27 52,32.3729081 52,39.0001172 Z M40.0001953,48.0000684 C44.9629458,48.0000684 49.0001465,43.9629458 49.0001465,39.0001172 C49.0001465,34.0370542 44.9629458,29.9998535 40.0001953,29.9998535 C35.0370542,29.9998535 30.9998535,34.0370542 30.9998535,39.0001172 C30.9998535,43.9629458 35.0370542,48.0000684 40.0001953,48.0000684 Z M32.999992,39.0000159 C32.999992,35.1405278 36.1404688,32.0000159 39.999992,32.0000159 L39.999992,34.0000717 C37.2430223,34.0000717 35.0001036,36.2430936 35.0001036,39.0000159 L32.999992,39.0000159 Z" id="Combined-Shape" fill="url(#linearGradient-1)"></path>
                </g>
            </g>
        </g>
    </g>
</svg>
